X: 18
T:Conor O'Reilly
M:6/8
L:1/8
C:O'Carolan (1670-1738)
R:Dbl. Jig
K:G
d| eAA ABd|ef/2e/2d dBg|dBB/2A/2 GAB|BAA A2:||
d|ga/2g/2f ged|ef/2e/2d dBg|ga/2g/2f ged|eaa a2 b|\
ga/2b/2a ged|ef/2e/2d BAf/2a/2| gee dBA| BAA A2||

